packages/core/src/svgs/tokens/branded/GUILD.svg

<svg width="24" height="24" viewBox="0 0 24 24" fill="none" xmlns="http://www.w3.org/2000/svg">
<path d="M11.9998 22C14.9645 20.3293 17.8997 18.6647 20.8233 16.9999V6.98822L11.9998 2L10.235 2.98235V4.21764C10.9586 3.80587 11.2703 3.64117 11.9998 3.23529C14.5528 4.68234 17.088 6.15882 19.6469 7.60587V16.4C17.0939 17.8471 14.5528 19.3235 11.9998 20.7706C9.41149 19.3117 6.94098 17.8412 4.35274 16.3764V6.37646C3.9645 6.59411 3.56451 6.77058 3.17627 6.98822V17.0117L11.9998 22ZM11.9998 19.5C14.1704 18.2764 16.3057 16.994 18.4703 15.7706V8.23528C16.3057 7.01764 14.1763 5.7294 11.9998 4.50587L9.05861 6.16469V3.65882C8.65861 3.89412 8.21156 4.27058 7.88215 4.45294V8.1941C9.38212 7.34705 10.5528 6.5647 11.9998 5.74706C13.788 6.75293 15.5115 7.86469 17.2939 8.87647V15.1411C15.4469 16.1823 13.8528 17.2235 11.9998 18.2705C10.1527 17.2176 8.57038 16.1764 6.70568 15.1235V5.14705C6.31155 5.36469 5.85861 5.55881 5.5292 5.74117V15.7647C7.73509 17.0117 9.79389 18.2588 11.9998 19.5058V19.5ZM14.9409 10.7352V10.1176C13.841 9.49417 13.1174 8.88234 11.9998 8.24704C10.988 8.82351 10.0587 9.55291 9.05861 10.1176V13.9058C10.1469 14.5177 10.8822 15.1411 11.9998 15.7765C13.1116 15.147 13.8351 14.5235 14.9409 13.8941V13.2706C15.294 13.0706 15.7351 12.8764 16.1175 12.6588V14.5118C14.6468 15.347 13.4704 16.1764 11.9998 17.0058C10.5998 16.2176 9.2763 15.3058 7.88215 14.5177V9.51764C9.09391 8.8294 10.0175 8.13529 11.2528 7.43529L11.9939 7.02352C13.4645 7.84705 14.6409 8.68234 16.1175 9.51173V11.3706C15.741 11.1529 15.3115 10.947 14.9409 10.7411V10.7352ZM14.3527 10.7529V11.753C13.588 11.4177 12.7704 11.0764 11.9998 10.7529C11.7645 10.8706 11.4821 11.0471 11.2528 11.1647C12.2822 11.4588 13.388 11.7294 14.3469 12.0059V13.2647C13.6233 13.6765 12.7292 14.0823 12.0056 14.4941C11.2587 14.0764 10.3645 13.6647 9.64689 13.2588V12.3176C10.4174 12.5529 11.2939 12.8647 11.9998 13.2588L12.7645 12.8295C11.7351 12.5353 10.6115 12.2647 9.65279 11.9941V10.7411C10.3822 10.3353 11.2762 9.9235 12.0056 9.51173C12.741 9.9294 13.6351 10.3412 14.3527 10.747V10.7529ZM15.3233 11.5765L15.4351 11.6353L15.6468 11.753L15.4939 11.847L15.3292 11.9411C15.3018 11.9274 15.2743 11.9137 15.2469 11.9L14.9998 11.7589L15.2116 11.6411C15.2489 11.62 15.2863 11.5984 15.3233 11.5765ZM15.6175 12.2942L15.7233 12.2353C15.7168 12.1706 15.7109 12.106 15.7057 12.0412L15.688 11.8824L15.5115 11.9823L15.388 12.0529V12.1352L15.4057 12.4118L15.6234 12.2942H15.6175ZM14.9409 12.2588V11.8941L15.2469 12.0471V12.4059L14.9409 12.2588Z" fill="#00ADB4"/>
</svg>

<svg xmlns="http://www.w3.org/2000/svg" width="24" height="24" fill="none" viewBox="0 0 24 24">
    <path fill="#00ADB4" d="M12 22c2.964-1.67 5.9-3.335 8.823-5V6.988L12 2l-1.765.982v1.236c.724-.412 1.035-.577 1.765-.983 2.553 1.447 5.088 2.924 7.647 4.37V16.4c-2.553 1.447-5.094 2.924-7.647 4.37-2.589-1.458-5.059-2.929-7.647-4.394v-10c-.388.218-.788.395-1.177.612v10.024zm0-2.5c2.17-1.224 4.306-2.506 6.47-3.73V8.236C16.306 7.018 14.176 5.73 12 4.505l-2.941 1.66V3.659c-.4.235-.847.612-1.177.794v3.741c1.5-.847 2.67-1.63 4.118-2.447 1.788 1.006 3.512 2.118 5.294 3.13v6.264c-1.847 1.041-3.441 2.083-5.294 3.13-1.847-1.053-3.43-2.095-5.294-3.148V5.147c-.394.218-.847.412-1.177.594v10.024c2.206 1.247 4.265 2.494 6.47 3.74zm2.94-8.765v-.617c-1.099-.624-1.823-1.236-2.94-1.871-1.012.577-1.941 1.306-2.941 1.87v3.789c1.088.612 1.823 1.235 2.94 1.87 1.113-.629 1.836-1.252 2.942-1.882v-.623c.353-.2.794-.395 1.176-.612v1.853c-1.47.835-2.647 1.664-4.117 2.494-1.4-.788-2.724-1.7-4.118-2.488v-5c1.212-.689 2.136-1.383 3.37-2.083l.742-.411c1.47.823 2.647 1.658 4.124 2.488v1.859c-.377-.218-.806-.424-1.177-.63zm-.587.018v1c-.765-.335-1.583-.677-2.353-1-.236.118-.518.294-.747.412 1.03.294 2.135.564 3.094.84v1.26c-.724.412-1.618.817-2.341 1.23-.747-.419-1.642-.83-2.36-1.236v-.941c.771.235 1.648.547 2.354.94l.765-.428c-1.03-.295-2.154-.565-3.112-.836v-1.253c.73-.406 1.623-.817 2.353-1.23.735.418 1.63.83 2.347 1.236zm.97.823.112.06.212.117-.153.094-.165.094-.082-.041-.247-.141.212-.118zm.294.718.106-.059-.017-.194-.018-.159-.177.1-.123.07v.083l.018.277.217-.118zm-.676-.035v-.365l.306.153v.359z"/>
</svg>
